src/rounded/icons/fi-rr-money.svg

<svg id="Layer_1" height="512" viewBox="0 0 24 24" width="512" xmlns="http://www.w3.org/2000/svg" data-name="Layer 1"><path d="m19 20h-14a5.006 5.006 0 0 1 -5-5v-6a5.006 5.006 0 0 1 5-5h14a5.006 5.006 0 0 1 5 5v6a5.006 5.006 0 0 1 -5 5zm-14-14a3 3 0 0 0 -3 3v6a3 3 0 0 0 3 3h14a3 3 0 0 0 3-3v-6a3 3 0 0 0 -3-3zm7 10a4 4 0 1 1 4-4 4 4 0 0 1 -4 4zm0-6a2 2 0 1 0 2 2 2 2 0 0 0 -2-2zm-7-2a1 1 0 1 0 1 1 1 1 0 0 0 -1-1zm13 1a1 1 0 1 0 1-1 1 1 0 0 0 -1 1zm-13 5a1 1 0 1 0 1 1 1 1 0 0 0 -1-1zm13 1a1 1 0 1 0 1-1 1 1 0 0 0 -1 1z"/></svg>

<svg id="Layer_1" data-name="Layer 1" xmlns="http://www.w3.org/2000/svg" viewBox="0 0 24 24"><path d="M19,20H5a5.006,5.006,0,0,1-5-5V9A5.006,5.006,0,0,1,5,4H19a5.006,5.006,0,0,1,5,5v6A5.006,5.006,0,0,1,19,20ZM5,6A3,3,0,0,0,2,9v6a3,3,0,0,0,3,3H19a3,3,0,0,0,3-3V9a3,3,0,0,0-3-3Zm7,10a4,4,0,1,1,4-4A4,4,0,0,1,12,16Zm0-6a2,2,0,1,0,2,2A2,2,0,0,0,12,10ZM5,8A1,1,0,1,0,6,9,1,1,0,0,0,5,8ZM18,9a1,1,0,1,0,1-1A1,1,0,0,0,18,9ZM5,14a1,1,0,1,0,1,1A1,1,0,0,0,5,14Zm13,1a1,1,0,1,0,1-1A1,1,0,0,0,18,15Z"/></svg>
